icon/gr/wordpress.svg

<svg xmlns="http://www.w3.org/2000/svg" viewBox="0 0 24 24" height="1em" width="1em">
  <path fill="#21759B" fill-rule="evenodd" d="M0,11.99925 C0,16.749 2.76,20.85375 6.76275,22.7985 L1.03875,7.116 C0.3735,8.60775 0,10.25925 0,11.99925 M20.10015,11.394 C20.10015,9.9105 19.5669,8.88375 19.1109,8.085 C18.50265,7.09575 17.9319,6.25875 17.9319,5.27025 C17.9319,4.167 18.76815,3.14025 19.94715,3.14025 C20.0004,3.14025 20.05065,3.147 20.1024,3.15 C17.9679,1.194 15.12315,0 11.9994,0 C7.8069,0 4.11915,2.151 1.9734,5.40825 C2.2554,5.41725 2.5209,5.4225 2.7459,5.4225 C4.00065,5.4225 5.9439,5.27025 5.9439,5.27025 C6.5904,5.232 6.6669,6.183 6.0204,6.25875 C6.0204,6.25875 5.37015,6.33525 4.64715,6.3735 L9.01665,19.371 L11.64315,11.49525 L9.77415,6.3735 C9.12765,6.33525 8.5149,6.25875 8.5149,6.25875 C7.8684,6.2205 7.94415,5.232 8.5914,5.27025 C8.5914,5.27025 10.5729,5.4225 11.7519,5.4225 C13.00665,5.4225 14.9499,5.27025 14.9499,5.27025 C15.59715,5.232 15.6729,6.183 15.0264,6.25875 C15.0264,6.25875 14.3754,6.33525 13.65315,6.3735 L17.98965,19.272 L19.1874,15.273 C19.7049,13.6125 20.10015,12.42075 20.10015,11.394 M12.21015,13.04895 L8.6094,23.5107 C9.6849,23.8272 10.8219,23.9997 11.9994,23.9997 C13.39665,23.9997 14.7369,23.7582 15.98415,23.31945 C15.95265,23.2677 15.92265,23.2137 15.89865,23.15445 L12.21015,13.04895 Z M22.52925,6.242475 C22.581,6.624975 22.61025,7.034475 22.61025,7.476225 C22.61025,8.693475 22.38225,10.062225 21.6975,11.774475 L18.03225,22.371225 C21.6,20.291475 23.99925,16.425975 23.99925,11.999475 C23.99925,9.912975 23.466,7.951725 22.52925,6.242475"/>
</svg>

<svg xmlns="http://www.w3.org/2000/svg" width="24" height="24"><path fill="#21759B" fill-rule="evenodd" d="M0 12a12 12 0 0 0 6.763 10.799L1.039 7.116A11.958 11.958 0 0 0 0 11.999m20.1-.605c0-1.483-.533-2.51-.99-3.309-.607-.99-1.178-1.826-1.178-2.815 0-1.103.836-2.13 2.015-2.13.053 0 .104.007.155.01A11.954 11.954 0 0 0 12 0C7.807 0 4.12 2.151 1.973 5.408c.282.01.548.014.773.014 1.255 0 3.198-.152 3.198-.152.646-.038.723.913.076.989 0 0-.65.076-1.373.114l4.37 12.998 2.626-7.876-1.869-5.121a22.087 22.087 0 0 1-1.26-.115c-.646-.038-.57-1.027.077-.989 0 0 1.982.153 3.16.153 1.256 0 3.199-.153 3.199-.153.647-.038.723.913.076.989 0 0-.65.076-1.373.114l4.337 12.899 1.197-3.999c.518-1.66.913-2.852.913-3.879m-7.89 1.655L8.61 23.51a11.988 11.988 0 0 0 7.374-.192 1.14 1.14 0 0 1-.085-.165L12.21 13.05Zm10.32-6.807c.051.383.08.792.08 1.234 0 1.217-.228 2.586-.912 4.298l-3.666 10.597A11.993 11.993 0 0 0 24 12c0-2.086-.533-4.047-1.47-5.757"/></svg>
